packages/bezier-icons/icons/sync.svg

<svg width="24" height="24" viewBox="0 0 24 24" fill="none" xmlns="http://www.w3.org/2000/svg">
<path d="M15.8732 9.25H21.5002C21.7762 9.25 22.0002 9.026 22.0002 8.75V3.123C22.0002 2.677 21.4612 2.455 21.1462 2.77L19.0272 4.889C17.1432 3.027 14.6512 2 12.0002 2C6.82314 2 2.5523 5.95447 2.04965 11.0014C1.99492 11.551 2.4479 12 3.00018 12C3.55247 12 3.99362 11.55 4.06212 11.002C4.55487 7.0602 7.92708 4 12.0002 4C14.1172 4 16.1062 4.819 17.6132 6.303L15.5202 8.396C15.2052 8.711 15.4282 9.25 15.8732 9.25Z" fill="#313234"/>
<path d="M8.12718 14.75H2.50018C2.22418 14.75 2.00018 14.974 2.00018 15.25V20.877C2.00018 21.322 2.53918 21.545 2.85418 21.23L4.97318 19.111C6.85618 20.973 9.34918 22 12.0002 22C17.1772 22 21.4481 18.0455 21.9507 12.9986C22.0054 12.449 21.5525 12 21.0002 12C20.4479 12 20.0068 12.45 19.9382 12.998C19.4455 16.9398 16.0733 20 12.0002 20C9.88318 20 7.89318 19.181 6.38718 17.697L8.48018 15.604C8.79518 15.289 8.57218 14.75 8.12718 14.75Z" fill="#313234"/>
</svg>

<svg xmlns="http://www.w3.org/2000/svg" width="24" height="24" fill="none" viewBox="0 0 24 24"><path fill="#313234" d="M15.873 9.25H21.5a.5.5 0 0 0 .5-.5V3.123a.5.5 0 0 0-.854-.353l-2.119 2.119A9.93 9.93 0 0 0 12 2c-5.177 0-9.448 3.954-9.95 9.001-.055.55.398.999.95.999s.994-.45 1.062-.998C4.555 7.06 7.927 4 12 4c2.117 0 4.106.819 5.613 2.303L15.52 8.396a.5.5 0 0 0 .353.854M8.127 14.75H2.5a.5.5 0 0 0-.5.5v5.627a.5.5 0 0 0 .854.353l2.12-2.119A9.93 9.93 0 0 0 12 22c5.177 0 9.448-3.954 9.95-9.001.055-.55-.398-.999-.95-.999s-.993.45-1.062.998C19.446 16.94 16.073 20 12 20a7.95 7.95 0 0 1-5.613-2.303l2.093-2.093a.5.5 0 0 0-.353-.854"/></svg>
